packages/pepicons/svg/pop/calendar.svg

<svg style="" width="20" height="20" viewBox="0 0 20 20" fill="none" xmlns="http://www.w3.org/2000/svg">
<path fill-rule="evenodd" clip-rule="evenodd" d="M3 4H17C17.5523 4 18 4.44772 18 5V17C18 17.5523 17.5523 18 17 18H3C2.44772 18 2 17.5523 2 17V5C2 4.44772 2.44772 4 3 4ZM4 8V16H16V8H4Z" fill="currentColor"/>
<circle cx="6.5" cy="10.5" r="1.5" fill="currentColor"/>
<circle cx="5.5" cy="4.5" r="1.5" fill="currentColor"/>
<circle cx="14.5" cy="4.5" r="1.5" fill="currentColor"/>
</svg>

<svg xmlns="http://www.w3.org/2000/svg" style="" width="20" height="20" viewBox="0 0 20 20"><g fill="none" fill-rule="evenodd"><path fill="currentColor" d="M3 4h14a1 1 0 0 1 1 1v12a1 1 0 0 1-1 1H3a1 1 0 0 1-1-1V5a1 1 0 0 1 1-1zm1 4v8h12V8H4z"/><circle cx="6.5" cy="10.5" r="1.5" fill="currentColor"/><circle cx="5.5" cy="4.5" r="1.5" fill="currentColor"/><circle cx="14.5" cy="4.5" r="1.5" fill="currentColor"/></g></svg>
